icons/file/icon_format-unknown_s_red.svg

<svg width="18" height="18" fill="none" xmlns="http://www.w3.org/2000/svg"><path fill-rule="evenodd" clip-rule="evenodd" d="M14 15.706V2.467c0-.29-.251-.526-.559-.526H6.707L3 5.431v10.275H2V5.04L6.293 1h7.148C14.301 1 15 1.658 15 2.467v13.239h-1z" fill="#D5352B"/><path fill-rule="evenodd" clip-rule="evenodd" d="M13.5 17h-10c-.827 0-1.5-.633-1.5-1.412h1c0 .26.224.47.5.47h10c.275 0 .5-.21.5-.47h1c0 .779-.673 1.412-1.5 1.412z" fill="#D5352B"/><path d="M8.83 12.155c-.554 0-.95.396-.95.957 0 .554.396.95.95.95.554 0 .943-.396.943-.95 0-.56-.389-.957-.943-.957zM8.98 4C7.059 4 6.075 5.176 6 6.652h1.169c.075-.978.731-1.586 1.764-1.586 1.019 0 1.675.622 1.675 1.47 0 .731-.308 1.162-1.101 1.647-.937.561-1.374 1.176-1.367 2.078v.629h1.196v-.444c0-.718.246-1.101 1.114-1.613.875-.526 1.429-1.285 1.429-2.358C11.879 5.067 10.703 4 8.98 4z" fill="#D5352B"/></svg>

<svg width="18" height="18" viewBox="0 0 18 18" fill="none" xmlns="http://www.w3.org/2000/svg">
<path fill-rule="evenodd" clip-rule="evenodd" d="M14 15.706V2.467C14 2.177 13.749 1.941 13.441 1.941H6.707L3 5.431V15.706H2V5.04L6.293 1H13.441C14.301 1 15 1.658 15 2.467V15.706H14Z" fill="#EF3124"/>
<path fill-rule="evenodd" clip-rule="evenodd" d="M13.5 16.9999H3.5C2.673 16.9999 2 16.3669 2 15.5879H3C3 15.8479 3.224 16.0579 3.5 16.0579H13.5C13.775 16.0579 14 15.8479 14 15.5879H15C15 16.3669 14.327 16.9999 13.5 16.9999Z" fill="#D5352B"/>
<path d="M8.83 12.155C8.276 12.155 7.88 12.551 7.88 13.112C7.88 13.666 8.276 14.062 8.83 14.062C9.384 14.062 9.773 13.666 9.773 13.112C9.773 12.552 9.384 12.155 8.83 12.155ZM8.98 4C7.059 4 6.075 5.176 6 6.652H7.169C7.244 5.674 7.9 5.066 8.933 5.066C9.952 5.066 10.608 5.688 10.608 6.536C10.608 7.267 10.3 7.698 9.507 8.183C8.57 8.744 8.133 9.359 8.14 10.261V10.89H9.336V10.446C9.336 9.728 9.582 9.345 10.45 8.833C11.325 8.307 11.879 7.548 11.879 6.475C11.879 5.067 10.703 4 8.98 4Z" fill="#EF3124"/>
</svg>
